storage/app/icons/phosphoricons/bold/trash-bold.svg

<svg xmlns="http://www.w3.org/2000/svg" fill="currentColor" viewBox="0 0 256 256"><path d="M216 48h-36V36a28 28 0 0 0-28-28h-48a28 28 0 0 0-28 28v12H40a12 12 0 0 0 0 24h4v136a20 20 0 0 0 20 20h128a20 20 0 0 0 20-20V72h4a12 12 0 0 0 0-24M100 36a4 4 0 0 1 4-4h48a4 4 0 0 1 4 4v12h-56Zm88 168H68V72h120Zm-72-100v64a12 12 0 0 1-24 0v-64a12 12 0 0 1 24 0m48 0v64a12 12 0 0 1-24 0v-64a12 12 0 0 1 24 0"/></svg>

<svg xmlns="http://www.w3.org/2000/svg" viewBox="0 0 256 256" fill="currentColor"><path d="M216,48H180V36A28,28,0,0,0,152,8H104A28,28,0,0,0,76,36V48H40a12,12,0,0,0,0,24h4V208a20,20,0,0,0,20,20H192a20,20,0,0,0,20-20V72h4a12,12,0,0,0,0-24ZM100,36a4,4,0,0,1,4-4h48a4,4,0,0,1,4,4V48H100Zm88,168H68V72H188ZM116,104v64a12,12,0,0,1-24,0V104a12,12,0,0,1,24,0Zm48,0v64a12,12,0,0,1-24,0V104a12,12,0,0,1,24,0Z"/></svg>
